X:3217
L:1/16
M:2/4
K:G
 d4 g4 | d4 B4 | c2>B2 cde2 | d6 d2 | g2>a2b2a2 | g4 B4 | cBcA F2D2 | G6 Bc :: d2ge dcBA | 
 G2B2 G2cB | A2F2 AcBA | G2BA G2 Bc | d2ge dcBA | G2B2 G2cB | A2F2 AcBA | G2>F2 G2Bc :|

